data/images/bg.svg

<svg width="2048" height="3413" viewBox="0 0 2048 3413" fill="none" xmlns="http://www.w3.org/2000/svg">
    <g opacity="0.1">
        <g opacity="0.5">
            <g opacity="0.5">
                <path d="M2047.27 3331.26L-0.733643 3331.26L-0.733954 -233.739L2047.27 -233.739L2047.27 3331.26Z"
                      fill="#211A19"/>
                <path d="M2047.27 3331.26L-0.733731 2319.26L-0.733954 -233.739L2047.27 -233.739L2047.27 3331.26Z"
                      fill="white"/>
                <path d="M2047.27 2465.26L-0.733704 2827.26L-0.733971 -233.739L2047.27 -233.739L2047.27 2465.26Z"
                      fill="#9F2D20"/>
                <path d="M2047.27 1584.76L-0.733704 2934.76L-0.733981 -233.739L2047.27 -233.739L2047.27 1584.76Z"
                      fill="white"/>
                <path d="M2047.27 2335.76L-0.733771 1559.76L-0.733928 -233.739L2047.27 -233.739L2047.27 2335.76Z"
                      fill="#211A19"/>
                <path d="M2047.27 1702.26L-0.733794 1368.26L-0.733934 -233.739L2047.27 -233.739L2047.27 1702.26Z"
                      fill="white"/>
                <path d="M2047.27 1242.76L-0.733853 927.761L-0.733955 -233.739L2047.27 -233.739L2047.27 1242.76Z"
                      fill="#211A19"/>
                <path d="M2047.27 874.261L-0.733765 1705.76L-0.733934 -233.739L2047.27 -233.739L2047.27 874.261Z"
                      fill="#9F2D20"/>
                <path d="M2047.27 -193.239L-0.733826 1331.26L-0.733963 -233.739L2047.27 -233.739L2047.27 -193.239Z"
                      fill="white"/>
                <path d="M2047.27 503.261L-0.733887 675.761L-0.733966 -233.739L2047.27 -233.739L2047.27 503.261Z"
                      fill="#211A19"/>
                <path d="M2047.27 464.261L-0.733925 25.7609L-0.733948 -233.739L2047.27 -233.739L2047.27 464.261Z"
                      fill="white"/>
            </g>
            <g opacity="0.5">
                <path d="M2047.27 3483.26L-0.733643 3483.26L-0.733954 -81.7391L2047.27 -81.7393L2047.27 3483.26Z"
                      fill="#211A19"/>
                <path d="M2047.27 3483.26L-0.733731 2471.26L-0.733954 -81.7391L2047.27 -81.7393L2047.27 3483.26Z"
                      fill="white"/>
                <path d="M2047.27 2617.26L-0.733704 2979.26L-0.733971 -81.7391L2047.27 -81.7393L2047.27 2617.26Z"
                      fill="#9F2D20"/>
                <path d="M2047.27 1736.76L-0.733704 3086.76L-0.733981 -81.7391L2047.27 -81.7393L2047.27 1736.76Z"
                      fill="white"/>
                <path d="M2047.27 2487.76L-0.733771 1711.76L-0.733928 -81.7391L2047.27 -81.7393L2047.27 2487.76Z"
                      fill="#211A19"/>
                <path d="M2047.27 1854.26L-0.733794 1520.26L-0.733934 -81.7391L2047.27 -81.7393L2047.27 1854.26Z"
                      fill="white"/>
                <path d="M2047.27 1394.76L-0.733853 1079.76L-0.733955 -81.7391L2047.27 -81.7393L2047.27 1394.76Z"
                      fill="#211A19"/>
                <path d="M2047.27 1026.26L-0.733765 1857.76L-0.733934 -81.7391L2047.27 -81.7393L2047.27 1026.26Z"
                      fill="#9F2D20"/>
                <path d="M2047.27 -41.2393L-0.733826 1483.26L-0.733963 -81.7391L2047.27 -81.7393L2047.27 -41.2393Z"
                      fill="white"/>
                <path d="M2047.27 655.261L-0.733887 827.761L-0.733966 -81.7391L2047.27 -81.7393L2047.27 655.261Z"
                      fill="#211A19"/>
                <path d="M2047.27 616.261L-0.733925 177.761L-0.733948 -81.7391L2047.27 -81.7393L2047.27 616.261Z"
                      fill="white"/>
            </g>
        </g>
        <g opacity="0.5">
            <g opacity="0.5">
                <path d="M-4.99951 -25.5146L2053.53 -25.5146V3557.82H-4.99951L-4.99951 -25.5146Z" fill="#211A19"/>
                <path d="M-4.99951 -25.5146L2053.53 991.69V3557.82H-4.99951L-4.99951 -25.5146Z" fill="white"/>
                <path d="M-4.99951 844.939L2053.53 481.077V3557.82H-4.99951L-4.99951 844.939Z" fill="#9F2D20"/>
                <path d="M-4.99951 1729.97L2053.53 373.024V3557.82H-4.99951L-4.99951 1729.97Z" fill="white"/>
                <path d="M-4.99951 975.104L2053.53 1755.1V3557.82H-4.99951L-4.99951 975.104Z" fill="#211A19"/>
                <path d="M-4.99951 1611.86L2053.53 1947.58V3557.82H-4.99951V1611.86Z" fill="white"/>
                <path d="M-4.99951 2073.73L2053.53 2390.35V3557.82H-4.99951V2073.73Z" fill="#211A19"/>
                <path d="M-4.99951 2444.12L2053.53 1608.34V3557.82H-4.99951V2444.12Z" fill="#9F2D20"/>
                <path d="M-4.99951 3517.11L2053.53 1984.77V3557.82H-4.99951V3517.11Z" fill="white"/>
                <path d="M-4.99951 2817.03L2053.53 2643.64V3557.82H-4.99951V2817.03Z" fill="#211A19"/>
                <path d="M-4.99951 2856.23L2053.53 3296.98V3557.82H-4.99951V2856.23Z" fill="white"/>
            </g>
            <g opacity="0.5">
                <path d="M-4.99951 -178.296L2053.53 -178.296V3405.04H-4.99951L-4.99951 -178.296Z" fill="#211A19"/>
                <path d="M-4.99951 -178.296L2053.53 838.908V3405.04H-4.99951L-4.99951 -178.296Z" fill="white"/>
                <path d="M-4.99951 692.157L2053.53 328.295V3405.04H-4.99951L-4.99951 692.157Z" fill="#9F2D20"/>
                <path d="M-4.99951 1577.18L2053.53 220.243V3405.04H-4.99951L-4.99951 1577.18Z" fill="white"/>
                <path d="M-4.99951 822.323L2053.53 1602.31V3405.04H-4.99951L-4.99951 822.323Z" fill="#211A19"/>
                <path d="M-4.99951 1459.08L2053.53 1794.8V3405.04H-4.99951V1459.08Z" fill="white"/>
                <path d="M-4.99951 1920.94L2053.53 2237.56V3405.04H-4.99951V1920.94Z" fill="#211A19"/>
                <path d="M-4.99951 2291.34L2053.53 1455.56V3405.04H-4.99951V2291.34Z" fill="#9F2D20"/>
                <path d="M-4.99951 3364.33L2053.53 1831.99V3405.04H-4.99951V3364.33Z" fill="white"/>
                <path d="M-4.99951 2664.25L2053.53 2490.86V3405.04H-4.99951V2664.25Z" fill="#211A19"/>
                <path d="M-4.99951 2703.45L2053.53 3144.2V3405.04H-4.99951V2703.45Z" fill="white"/>
            </g>
        </g>
    </g>
</svg>

<svg xmlns="http://www.w3.org/2000/svg" width="2048" height="3413" fill="none">
  <g opacity=".1">
    <g opacity=".5">
      <g opacity=".5">
        <path
          fill="#211A19"
          d="M2047.27 3331.26H-.734V-233.739H2047.27V3331.26Z"
        />
        <path
          fill="#fff"
          d="M2047.27 3331.26-.734 2319.26V-233.739H2047.27V3331.26Z"
        />
        <path
          fill="#9F2D20"
          d="m2047.27 2465.26-2048.004 362V-233.739H2047.27V2465.26Z"
        />
        <path
          fill="#fff"
          d="M2047.27 1584.76-.734 2934.76V-233.739H2047.27V1584.76Z"
        />
        <path
          fill="#211A19"
          d="m2047.27 2335.76-2048.004-776V-233.739H2047.27V2335.76Z"
        />
        <path
          fill="#fff"
          d="m2047.27 1702.26-2048.004-334V-233.739H2047.27V1702.26Z"
        />
        <path
          fill="#211A19"
          d="M2047.27 1242.76-.734 927.761v-1161.5H2047.27V1242.76Z"
        />
        <path
          fill="#9F2D20"
          d="M2047.27 874.261-.734 1705.76V-233.739H2047.27v1108Z"
        />
        <path
          fill="#fff"
          d="M2047.27-193.239-.734 1331.26V-233.739H2047.27v40.5Z"
        />
        <path
          fill="#211A19"
          d="M2047.27 503.261-.734 675.761v-909.5H2047.27v737Z"
        />
        <path
          fill="#fff"
          d="M2047.27 464.261-.734 25.761v-259.5H2047.27v698Z"
        />
      </g>
      <g opacity=".5">
        <path fill="#211A19" d="M2047.27 3483.26H-.734v-3565H2047.27v3565Z" />
        <path
          fill="#fff"
          d="M2047.27 3483.26-.734 2471.26v-2553H2047.27v3565Z"
        />
        <path
          fill="#9F2D20"
          d="m2047.27 2617.26-2048.004 362v-3061H2047.27v2699Z"
        />
        <path
          fill="#fff"
          d="M2047.27 1736.76-.734 3086.76V-81.74H2047.27v1818.5Z"
        />
        <path
          fill="#211A19"
          d="m2047.27 2487.76-2048.004-776V-81.74H2047.27v2569.5Z"
        />
        <path
          fill="#fff"
          d="m2047.27 1854.26-2048.004-334v-1602H2047.27v1936Z"
        />
        <path
          fill="#211A19"
          d="m2047.27 1394.76-2048.004-315V-81.74H2047.27v1476.5Z"
        />
        <path
          fill="#9F2D20"
          d="M2047.27 1026.26-.734 1857.76V-81.74H2047.27v1108Z"
        />
        <path fill="#fff" d="M2047.27-41.24-.734 1483.26v-1565H2047.27v40.5Z" />
        <path
          fill="#211A19"
          d="M2047.27 655.261-.734 827.761v-909.5H2047.27v737Z"
        />
        <path
          fill="#fff"
          d="M2047.27 616.261-.734 177.761v-259.5H2047.27v698Z"
        />
      </g>
    </g>
    <g opacity=".5">
      <g opacity=".5">
        <path fill="#211A19" d="M-5-25.515h2058.53V3557.82H-5V-25.515Z" />
        <path fill="#fff" d="M-5-25.515 2053.53 991.69v2566.13H-5V-25.515Z" />
        <path
          fill="#9F2D20"
          d="m-5 844.939 2058.53-363.862V3557.82H-5V844.939Z"
        />
        <path fill="#fff" d="M-5 1729.97 2053.53 373.024V3557.82H-5V1729.97Z" />
        <path
          fill="#211A19"
          d="M-5 975.104 2053.53 1755.1v1802.72H-5V975.104Z"
        />
        <path fill="#fff" d="m-5 1611.86 2058.53 335.72v1610.24H-5V1611.86Z" />
        <path
          fill="#211A19"
          d="m-5 2073.73 2058.53 316.62v1167.47H-5V2073.73Z"
        />
        <path
          fill="#9F2D20"
          d="m-5 2444.12 2058.53-835.78v1949.48H-5v-1113.7Z"
        />
        <path fill="#fff" d="m-5 3517.11 2058.53-1532.34v1573.05H-5v-40.71Z" />
        <path
          fill="#211A19"
          d="m-5 2817.03 2058.53-173.39v914.18H-5v-740.79Z"
        />
        <path fill="#fff" d="m-5 2856.23 2058.53 440.75v260.84H-5v-701.59Z" />
      </g>
      <g opacity=".5">
        <path fill="#211A19" d="M-5-178.296h2058.53V3405.04H-5V-178.296Z" />
        <path
          fill="#fff"
          d="M-5-178.296 2053.53 838.908V3405.04H-5V-178.296Z"
        />
        <path
          fill="#9F2D20"
          d="m-5 692.157 2058.53-363.862V3405.04H-5V692.157Z"
        />
        <path fill="#fff" d="M-5 1577.18 2053.53 220.243V3405.04H-5V1577.18Z" />
        <path
          fill="#211A19"
          d="m-5 822.323 2058.53 779.987v1802.73H-5V822.323Z"
        />
        <path fill="#fff" d="m-5 1459.08 2058.53 335.72v1610.24H-5V1459.08Z" />
        <path
          fill="#211A19"
          d="m-5 1920.94 2058.53 316.62v1167.48H-5v-1484.1Z"
        />
        <path
          fill="#9F2D20"
          d="m-5 2291.34 2058.53-835.78v1949.48H-5v-1113.7Z"
        />
        <path fill="#fff" d="m-5 3364.33 2058.53-1532.34v1573.05H-5v-40.71Z" />
        <path
          fill="#211A19"
          d="m-5 2664.25 2058.53-173.39v914.18H-5v-740.79Z"
        />
        <path fill="#fff" d="m-5 2703.45 2058.53 440.75v260.84H-5v-701.59Z" />
      </g>
    </g>
  </g>
</svg>
